X:118
T:Trip to the North. JJo8.118
B:J.Johnson Choice Collection Vol 8 1758
Z:vmp.Simon Wilson 2013 www.village-music-project.org.uk
M:2/2
L:1/8
Q:1/2=80
K:D
|:d|dAAF|B/B/B Bd|dAAF|E/E/EE2|dAAF|B/B/B Bg|fedc|d2D:|
|:e|fdde|fdde|fdaf|eAAe|fdde|faAg|fedc|d2D:|

